packages/ui-website/public/assets/images/logo.svg

<svg width="649" height="580" viewBox="0 0 649 580" fill="currentColor" xmlns="http://www.w3.org/2000/svg">
<path d="M228.554 579.983C156.366 579.983 100.837 559.157 61.9697 517.505C206.985 516.282 328.912 481.47 328.912 319.053V19.9203C328.912 -5.3268 452.831 -5.3268 452.831 19.9203V305.963C452.831 453.625 391.574 579.983 228.554 579.983Z"/>
<path d="M129.942 189.655V19.9203C129.942 -5.42037 0.786232 -5.4203 0.786255 19.9203V127.689C0.786255 149.5 86 189.655 129.942 189.655Z"/>
<path d="M0.786255 277.967C0.786255 316.612 0.971344 355.193 7.39815 393.436C42.5732 405.605 128.806 414.32 128.806 358.66C128.806 303 35 290 0.786255 277.967Z"/>
<path d="M520.028 20.0285L520.028 560.486C520.028 585.958 648.311 585.958 648.311 560.486L648.311 20.0285C648.311 -5.44291 520.028 -5.44292 520.028 20.0285Z"/>
</svg>

<svg xmlns="http://www.w3.org/2000/svg" width="649" height="580" fill="currentColor"><path d="M228.554 579.983c-72.188 0-127.717-20.826-166.584-62.478 145.015-1.223 266.942-36.035 266.942-198.452V19.92c0-25.247 123.92-25.247 123.92 0v286.043c0 147.662-61.257 274.02-224.277 274.02zm-98.612-390.328V19.92c0-25.34-129.156-25.34-129.156 0V127.7c0 21.8 85.214 61.966 129.156 61.966z"/><path d="M.786 277.967c0 38.645.185 77.226 6.612 115.47 35.175 12.17 121.408 20.884 121.408-34.776S35 290 .786 277.967zM520.028 20.03v540.458c0 25.472 128.283 25.472 128.283 0V20.03c0-25.47-128.283-25.47-128.283 0z"/></svg>
